; generated by Slic3r 1.3.0 on 2019-05-27 at 20:26:14

; Print Config Notes: 
; Profile for Sharebot !
; 
; external perimeters extrusion width = 0.44mm (1.99mm^3/s)
; perimeters extrusion width = 0.56mm (5.17mm^3/s)
; infill extrusion width = 0.50mm (5.03mm^3/s)
; solid infill extrusion width = 0.56mm (5.17mm^3/s)
; top infill extrusion width = 0.56mm (4.14mm^3/s)

M107
M190 S40 ; set bed temperature and wait for it to be reached
M104 S220 ; set temperature
M92 X80.00 Y80.00 Z388.34 E96.28
G28 ;Home all axis
T0
G1 Z10 F1000
G92 E0
M117 Printing...
; Filament gcode

M109 S220 ; set temperature and wait for it to be reached
G21 ; set units to millimeters
G90 ; use absolute coordinates
M82 ; use absolute distances for extrusion
G92 E0
G1 Z0.300 F6000.000
G1 E-2.50000 F1500.00000
G92 E0
G1 X103.569 Y84.213 F6000.000
G1 E2.50000 F1500.00000
M201 X1500 Y1500
M204 P1500 T1500
G1 F1080
G1 X104.368 Y83.265 E2.56478
G1 X105.338 Y82.232 E2.63884
G1 X106.363 Y81.256 E2.71274
G1 X107.439 Y80.340 E2.78660
G1 X108.568 Y79.485 E2.86058
G1 X109.740 Y78.695 E2.93439
G1 X111.116 Y77.884 E3.01786
G1 X112.211 Y77.318 E3.08229
G1 X113.499 Y76.736 E3.15612
G1 X114.820 Y76.226 E3.23011
G1 X116.165 Y75.792 E3.30394
G1 X117.535 Y75.433 E3.37789
G1 X118.922 Y75.152 E3.45183
G1 X120.500 Y74.929 E3.53513
G1 X121.907 Y74.816 E3.60888
G1 X123.143 Y74.781 E3.67346
G1 X124.553 Y74.815 E3.74717
G1 X125.968 Y74.929 E3.82133
G1 X127.550 Y75.152 E3.90476
G1 X128.944 Y75.436 E3.97912
G1 X130.304 Y75.791 E4.05256
G1 X131.649 Y76.225 E4.12637
G1 X132.970 Y76.735 E4.20036
G1 X134.258 Y77.317 E4.27418
G1 X135.353 Y77.883 E4.33859
G1 X136.730 Y78.695 E4.42210
G1 X137.909 Y79.489 E4.49636
G1 X139.029 Y80.339 E4.56982
G1 X140.106 Y81.254 E4.64366
G1 X141.130 Y82.229 E4.71756
G1 X142.099 Y83.262 E4.79154
G1 X142.895 Y84.204 E4.85596
G1 X143.853 Y85.477 E4.93921
G1 X144.646 Y86.673 E5.01415
G1 X145.350 Y87.878 E5.08709
G1 X145.916 Y88.974 E5.15152
G1 X146.499 Y90.262 E5.22537
G1 X147.009 Y91.583 E5.29938
G1 X147.443 Y92.928 E5.37323
G1 X147.797 Y94.280 E5.44624
G1 X148.086 Y95.703 E5.52206
G1 X148.306 Y97.266 E5.60454
G1 X148.410 Y98.495 E5.66900
G1 X148.455 Y99.908 E5.74286
G1 X148.420 Y101.323 E5.81681
G1 X148.306 Y102.734 E5.89078
G1 X148.083 Y104.315 E5.97416
G1 X147.802 Y105.701 E6.04808
G1 X147.448 Y107.053 E6.12107
G1 X147.069 Y108.243 E6.18632
G1 X146.568 Y109.570 E6.26040
G1 X145.996 Y110.861 E6.33422
G1 X145.350 Y112.122 E6.40823
G1 X144.538 Y113.498 E6.49171
G1 X143.750 Y114.668 E6.56537
G1 X142.899 Y115.790 E6.63897
G1 X142.100 Y116.738 E6.70374
G1 X141.130 Y117.771 E6.77776
G1 X140.106 Y118.746 E6.85165
G1 X139.029 Y119.661 E6.92549
G1 X137.909 Y120.511 E6.99896
G1 X136.730 Y121.305 E7.07321
G1 X135.353 Y122.117 E7.15672
G1 X134.258 Y122.683 E7.22114
G1 X132.970 Y123.265 E7.29496
G1 X131.649 Y123.775 E7.36894
G1 X130.304 Y124.209 E7.44275
G1 X128.758 Y124.607 E7.52619
G1 X127.368 Y124.879 E7.60016
G1 X125.980 Y125.069 E7.67335
G1 X124.746 Y125.174 E7.73810
G1 X123.337 Y125.219 E7.81172
G1 X121.909 Y125.184 E7.88636
G1 X120.500 Y125.071 E7.96019
G1 X118.922 Y124.848 E8.04349
G1 X117.535 Y124.567 E8.11743
G1 X116.176 Y124.211 E8.19080
G1 X114.994 Y123.835 E8.25562
G1 X113.668 Y123.334 E8.32966
G1 X112.376 Y122.762 E8.40346
G1 X111.116 Y122.116 E8.47745
G1 X109.740 Y121.305 E8.56092
G1 X108.568 Y120.515 E8.63473
G1 X107.448 Y119.667 E8.70814
G1 X106.500 Y118.867 E8.77292
G1 X105.467 Y117.897 E8.84698
G1 X104.491 Y116.873 E8.92088
G1 X103.575 Y115.796 E8.99474
G1 X102.720 Y114.667 E9.06872
G1 X101.931 Y113.496 E9.14253
G1 X101.119 Y112.120 E9.22600
G1 X100.553 Y111.024 E9.29043
G1 X99.971 Y109.736 E9.36426
G1 X99.461 Y108.415 E9.43825
G1 X99.027 Y107.070 E9.51208
G1 X98.669 Y105.701 E9.58603
G1 X98.387 Y104.314 E9.65997
G1 X98.164 Y102.734 E9.74333
G1 X98.061 Y101.504 E9.80778
G1 X98.016 Y100.092 E9.88162
G1 X98.051 Y98.677 E9.95555
G1 X98.164 Y97.266 E10.02950
G1 X98.387 Y95.686 E10.11287
G1 X98.669 Y94.299 E10.18681
G1 X99.024 Y92.941 E10.26018
G1 X99.401 Y91.758 E10.32500
G1 X99.901 Y90.433 E10.39904
G1 X100.473 Y89.141 E10.47284
G1 X101.119 Y87.880 E10.54684
G1 X101.931 Y86.504 E10.63030
G1 X102.720 Y85.333 E10.70411
G1 X103.531 Y84.260 E10.77439
G1 X103.889 Y84.483 F6000.000
G1 F1080
G1 X104.688 Y83.535 E10.83917
G1 X105.643 Y82.519 E10.91198
G1 X106.650 Y81.560 E10.98467
G1 X107.710 Y80.660 E11.05729
G1 X108.820 Y79.819 E11.13005
G1 X109.972 Y79.044 E11.20264
G1 X111.308 Y78.256 E11.28365
G1 X112.404 Y77.690 E11.34807
G1 X113.670 Y77.118 E11.42068
G1 X114.970 Y76.617 E11.49344
G1 X116.292 Y76.191 E11.56604
G1 X117.639 Y75.839 E11.63876
G1 X119.003 Y75.563 E11.71148
G1 X120.535 Y75.347 E11.79232
G1 X121.919 Y75.234 E11.86486
G1 X123.155 Y75.199 E11.92943
G1 X124.542 Y75.234 E12.00191
G1 X125.933 Y75.347 E12.07486
G1 X127.468 Y75.563 E12.15581
G1 X128.840 Y75.841 E12.22896
G1 X130.177 Y76.191 E12.30117
G1 X131.499 Y76.617 E12.37376
G1 X132.799 Y77.117 E12.44651
G1 X134.065 Y77.689 E12.51910
G1 X135.161 Y78.255 E12.58352
G1 X136.497 Y79.043 E12.66457
G1 X137.657 Y79.824 E12.73760
G1 X138.759 Y80.659 E12.80984
G1 X139.818 Y81.559 E12.88245
G1 X140.826 Y82.517 E12.95512
G1 X141.673 Y83.413 E13.01952
G1 X142.575 Y84.474 E13.09230
G1 X143.505 Y85.710 E13.17309
G1 X144.285 Y86.885 E13.24680
G1 X144.978 Y88.070 E13.31852
G1 X145.544 Y89.166 E13.38296
G1 X146.116 Y90.433 E13.45557
G1 X146.617 Y91.733 E13.52836
G1 X147.044 Y93.056 E13.60097
G1 X147.392 Y94.385 E13.67276
G1 X147.675 Y95.784 E13.74736
G1 X147.889 Y97.301 E13.82737
G1 X147.992 Y98.530 E13.89184
G1 X148.036 Y99.920 E13.96447
G1 X148.001 Y101.311 E14.03719
G1 X147.889 Y102.699 E14.10993
G1 X147.672 Y104.233 E14.19086
G1 X147.396 Y105.597 E14.26356
G1 X147.049 Y106.926 E14.33533
G1 X146.670 Y108.116 E14.40058
G1 X146.177 Y109.420 E14.47342
G1 X145.614 Y110.690 E14.54601
G1 X144.978 Y111.930 E14.61879
G1 X144.190 Y113.266 E14.69982
G1 X143.416 Y114.416 E14.77226
G1 X142.579 Y115.520 E14.84463
G1 X141.780 Y116.467 E14.90940
G1 X140.826 Y117.483 E14.98218
G1 X139.818 Y118.441 E15.05486
G1 X138.759 Y119.341 E15.12747
G1 X137.657 Y120.176 E15.19971
G1 X136.497 Y120.957 E15.27274
G1 X135.161 Y121.745 E15.35379
G1 X134.065 Y122.311 E15.41820
G1 X132.799 Y122.882 E15.49080
G1 X131.499 Y123.383 E15.56355
G1 X130.177 Y123.809 E15.63614
G1 X128.676 Y124.196 E15.71712
G1 X127.310 Y124.464 E15.78987
G1 X125.945 Y124.652 E15.86183
G1 X124.710 Y124.757 E15.92658
G1 X123.325 Y124.800 E15.99898
G1 X121.920 Y124.766 E16.07239
G1 X120.535 Y124.653 E16.14498
G1 X119.003 Y124.437 E16.22583
G1 X117.639 Y124.161 E16.29854
G1 X116.303 Y123.812 E16.37069
G1 X115.121 Y123.436 E16.43551
G1 X113.817 Y122.943 E16.50832
G1 X112.547 Y122.380 E16.58089
G1 X111.308 Y121.744 E16.65366
G1 X109.972 Y120.956 E16.73467
G1 X108.820 Y120.181 E16.80726
G1 X107.718 Y119.346 E16.87945
G1 X106.771 Y118.547 E16.94423
G1 X105.755 Y117.593 E17.01704
G1 X104.796 Y116.585 E17.08973
G1 X103.895 Y115.526 E17.16235
G1 X103.055 Y114.416 E17.23511
G1 X102.279 Y113.263 E17.30770
G1 X101.491 Y111.927 E17.38871
G1 X100.925 Y110.832 E17.45313
G1 X100.353 Y109.565 E17.52574
G1 X99.853 Y108.265 E17.59850
G1 X99.426 Y106.943 E17.67110
G1 X99.074 Y105.596 E17.74382
G1 X98.798 Y104.232 E17.81654
G1 X98.582 Y102.699 E17.89745
G1 X98.478 Y101.469 E17.96190
G1 X98.435 Y100.080 E18.03452
G1 X98.469 Y98.689 E18.10721
G1 X98.582 Y97.301 E18.17994
G1 X98.798 Y95.768 E18.26085
G1 X99.074 Y94.404 E18.33357
G1 X99.423 Y93.068 E18.40572
G1 X99.800 Y91.886 E18.47053
G1 X100.292 Y90.582 E18.54334
G1 X100.856 Y89.312 E18.61592
G1 X101.491 Y88.073 E18.68868
G1 X102.279 Y86.737 E18.76969
G1 X103.055 Y85.584 E18.84228
G1 X103.851 Y84.530 E18.91134
G1 X104.209 Y84.753 F6000.000
G1 F1080
G1 X105.009 Y83.805 E18.97612
G1 X105.947 Y82.807 E19.04769
G1 X106.938 Y81.865 E19.11915
G1 X107.980 Y80.980 E19.19054
G1 X109.072 Y80.154 E19.26208
G1 X110.205 Y79.392 E19.33344
G1 X111.500 Y78.628 E19.41200
G1 X112.596 Y78.062 E19.47642
G1 X113.841 Y77.500 E19.54780
G1 X115.119 Y77.009 E19.61934
G1 X116.420 Y76.590 E19.69071
G1 X117.744 Y76.245 E19.76220
G1 X119.085 Y75.974 E19.83369
G1 X120.571 Y75.764 E19.91208
G1 X121.931 Y75.653 E19.98339
G1 X123.167 Y75.618 E20.04797
G1 X124.530 Y75.653 E20.11921
G1 X125.898 Y75.764 E20.19094
G1 X127.386 Y75.974 E20.26942
G1 X128.735 Y76.247 E20.34136
G1 X130.050 Y76.590 E20.41233
G1 X131.350 Y77.008 E20.48370
G1 X132.628 Y77.500 E20.55523
G1 X133.873 Y78.061 E20.62659
G1 X134.969 Y78.627 E20.69100
G1 X136.264 Y79.391 E20.76959
G1 X137.405 Y80.158 E20.84141
G1 X138.489 Y80.979 E20.91242
G1 X139.530 Y81.863 E20.98380
G1 X140.521 Y82.805 E21.05525
G1 X141.368 Y83.701 E21.11965
G1 X142.255 Y84.744 E21.19119
G1 X143.156 Y85.942 E21.26953
G1 X143.924 Y87.098 E21.34201
G1 X144.606 Y88.263 E21.41251
G1 X145.172 Y89.358 E21.47695
G1 X145.734 Y90.604 E21.54833
G1 X146.226 Y91.882 E21.61989
G1 X146.645 Y93.183 E21.69129
G1 X146.986 Y94.490 E21.76184
G1 X147.264 Y95.866 E21.83521
G1 X147.471 Y97.336 E21.91277
G1 X147.575 Y98.566 E21.97723
G1 X147.617 Y99.932 E22.04865
G1 X147.582 Y101.299 E22.12013
G1 X147.471 Y102.664 E22.19165
G1 X147.261 Y104.151 E22.27012
G1 X146.990 Y105.492 E22.34160
G1 X146.650 Y106.799 E22.41214
G1 X146.271 Y107.989 E22.47739
G1 X145.786 Y109.271 E22.54900
G1 X145.231 Y110.519 E22.62036
G1 X144.606 Y111.737 E22.69191
G1 X143.842 Y113.033 E22.77048
G1 X143.081 Y114.164 E22.84171
G1 X142.259 Y115.250 E22.91286
G1 X141.460 Y116.197 E22.97762
G1 X140.521 Y117.195 E23.04917
G1 X139.530 Y118.137 E23.12062
G1 X138.489 Y119.021 E23.19200
G1 X137.405 Y119.842 E23.26301
G1 X136.264 Y120.609 E23.33483
G1 X134.969 Y121.373 E23.41342
G1 X133.873 Y121.939 E23.47783
G1 X132.628 Y122.500 E23.54920
G1 X131.350 Y122.992 E23.62072
G1 X130.050 Y123.410 E23.69209
G1 X128.594 Y123.786 E23.77062
G1 X127.251 Y124.049 E23.84213
G1 X125.910 Y124.235 E23.91288
G1 X124.675 Y124.339 E23.97763
G1 X123.313 Y124.382 E24.04879
G1 X121.932 Y124.347 E24.12097
G1 X120.571 Y124.236 E24.19234
G1 X119.085 Y124.026 E24.27073
G1 X117.744 Y123.755 E24.34222
G1 X116.430 Y123.413 E24.41315
G1 X115.248 Y123.036 E24.47796
G1 X113.967 Y122.551 E24.54954
G1 X112.718 Y121.997 E24.62089
G1 X111.500 Y121.372 E24.69242
G1 X110.205 Y120.608 E24.77098
G1 X109.072 Y119.846 E24.84234
G1 X107.988 Y119.026 E24.91332
G1 X107.041 Y118.227 E24.97810
G1 X106.043 Y117.288 E25.04967
G1 X105.100 Y116.297 E25.12113
G1 X104.216 Y115.255 E25.19252
G1 X103.389 Y114.164 E25.26406
G1 X102.627 Y113.030 E25.33542
G1 X101.863 Y111.735 E25.41398
G1 X101.297 Y110.639 E25.47840
G1 X100.736 Y109.394 E25.54978
G1 X100.244 Y108.116 E25.62132
G1 X99.825 Y106.816 E25.69269
G1 X99.480 Y105.492 E25.76418
G1 X99.209 Y104.150 E25.83567
G1 X98.999 Y102.663 E25.91413
G1 X98.896 Y101.434 E25.97857
G1 X98.853 Y100.068 E26.04997
G1 X98.888 Y98.701 E26.12143
G1 X98.999 Y97.337 E26.19294
G1 X99.209 Y95.850 E26.27139
G1 X99.480 Y94.508 E26.34288
G1 X99.822 Y93.195 E26.41381
G1 X100.199 Y92.013 E26.47863
G1 X100.684 Y90.731 E26.55020
G1 X101.238 Y89.483 E26.62155
G1 X101.863 Y88.265 E26.69308
G1 X102.627 Y86.970 E26.77164
G1 X103.389 Y85.836 E26.84300
G1 X104.172 Y84.800 E26.91085
G1 E24.41085 F1500.00000
G92 E0
G1 X131.477 Y106.096 F6000.000
G1 E2.50000 F1500.00000
M201 X500 Y500
M204 P500 T500
G1 F1080
G1 X130.931 Y106.772 E2.54542
G1 X130.328 Y107.402 E2.59094
G1 X129.676 Y107.975 E2.63632
G1 X128.975 Y108.494 E2.68189
G1 X128.224 Y108.955 E2.72792
G1 X127.457 Y109.341 E2.77278
G1 X126.651 Y109.665 E2.81815
G1 X125.818 Y109.920 E2.86369
G1 X124.969 Y110.104 E2.90907
G1 X124.109 Y110.214 E2.95437
G1 X123.235 Y110.251 E3.00004
G1 X122.362 Y110.214 E3.04571
G1 X121.502 Y110.104 E3.09101
G1 X120.653 Y109.920 E3.13639
G1 X119.819 Y109.665 E3.18193
G1 X119.014 Y109.341 E3.22730
G1 X118.235 Y108.949 E3.27285
G1 X117.496 Y108.494 E3.31821
G1 X116.795 Y107.975 E3.36376
G1 X116.143 Y107.402 E3.40914
G1 X115.540 Y106.772 E3.45467
G1 X114.994 Y106.096 E3.50008
G1 X114.506 Y105.375 E3.54557
G1 X114.081 Y104.615 E3.59104
G1 X113.724 Y103.822 E3.63647
G1 X113.433 Y103.001 E3.68199
G1 X113.214 Y102.160 E3.72738
G1 X113.067 Y101.301 E3.77292
G1 X112.993 Y100.436 E3.81828
G1 X112.993 Y99.564 E3.86384
G1 X113.067 Y98.699 E3.90920
G1 X113.214 Y97.840 E3.95475
G1 X113.433 Y96.999 E4.00013
G1 X113.724 Y96.178 E4.04565
G1 X114.081 Y95.385 E4.09108
G1 X114.506 Y94.625 E4.13655
G1 X114.994 Y93.904 E4.18204
G1 X115.540 Y93.228 E4.22745
G1 X116.143 Y92.598 E4.27298
G1 X116.795 Y92.025 E4.31836
G1 X117.496 Y91.506 E4.36391
G1 X118.235 Y91.051 E4.40927
G1 X119.014 Y90.659 E4.45482
G1 X119.819 Y90.335 E4.50019
G1 X120.653 Y90.080 E4.54573
G1 X121.502 Y89.896 E4.59114
G1 X122.375 Y89.786 E4.63710
G1 X123.235 Y89.749 E4.68208
G1 X124.109 Y89.786 E4.72775
G1 X124.969 Y89.896 E4.77305
G1 X125.818 Y90.080 E4.81843
G1 X126.651 Y90.335 E4.86397
G1 X127.457 Y90.659 E4.90934
G1 X128.236 Y91.051 E4.95489
G1 X128.975 Y91.506 E5.00025
G1 X129.676 Y92.025 E5.04580
G1 X130.328 Y92.598 E5.09118
G1 X130.931 Y93.228 E5.13671
G1 X131.477 Y93.904 E5.18212
G1 X131.965 Y94.626 E5.22763
G1 X132.394 Y95.397 E5.27377
G1 X132.747 Y96.178 E5.31851
G1 X133.037 Y96.999 E5.36402
G1 X133.256 Y97.840 E5.40941
G1 X133.404 Y98.699 E5.45495
G1 X133.477 Y99.564 E5.50032
G1 X133.477 Y100.436 E5.54587
G1 X133.404 Y101.301 E5.59124
G1 X133.256 Y102.161 E5.63680
G1 X133.033 Y103.014 E5.68286
G1 X132.747 Y103.822 E5.72768
G1 X132.389 Y104.615 E5.77311
G1 X131.964 Y105.375 E5.81859
G1 X131.511 Y106.046 E5.86094
M201 X1500 Y1500
M204 P1500 T1500
G1 X131.157 Y105.860 F6000.000
M201 X500 Y500
M204 P500 T500
G1 F1080
G1 X130.632 Y106.510 E5.90008
G1 X130.053 Y107.114 E5.93932
G1 X129.426 Y107.666 E5.97843
G1 X128.752 Y108.164 E6.01771
G1 X128.030 Y108.608 E6.05740
G1 X127.293 Y108.979 E6.09606
G1 X126.519 Y109.290 E6.13516
G1 X125.718 Y109.536 E6.17442
G1 X124.901 Y109.712 E6.21354
G1 X124.075 Y109.818 E6.25258
G1 X123.235 Y109.854 E6.29194
G1 X122.396 Y109.818 E6.33131
G1 X121.569 Y109.712 E6.37035
G1 X120.753 Y109.536 E6.40947
G1 X119.952 Y109.290 E6.44873
G1 X119.177 Y108.979 E6.48783
G1 X118.429 Y108.602 E6.52710
G1 X117.718 Y108.164 E6.56619
G1 X117.044 Y107.666 E6.60546
G1 X116.418 Y107.114 E6.64456
G1 X115.838 Y106.510 E6.68381
G1 X115.313 Y105.860 E6.72295
G1 X114.845 Y105.166 E6.76216
G1 X114.437 Y104.436 E6.80135
G1 X114.092 Y103.674 E6.84051
G1 X113.813 Y102.885 E6.87975
G1 X113.603 Y102.077 E6.91886
G1 X113.461 Y101.251 E6.95812
G1 X113.391 Y100.419 E6.99722
G1 X113.391 Y99.581 E7.03649
G1 X113.461 Y98.749 E7.07559
G1 X113.603 Y97.923 E7.11485
G1 X113.813 Y97.115 E7.15397
G1 X114.092 Y96.326 E7.19320
G1 X114.437 Y95.564 E7.23236
G1 X114.845 Y94.834 E7.27155
G1 X115.313 Y94.140 E7.31076
G1 X115.838 Y93.490 E7.34990
G1 X116.418 Y92.886 E7.38915
G1 X117.044 Y92.334 E7.42826
G1 X117.718 Y91.836 E7.46752
G1 X118.429 Y91.398 E7.50662
G1 X119.177 Y91.021 E7.54589
G1 X119.952 Y90.710 E7.58499
G1 X120.753 Y90.464 E7.62424
G1 X121.569 Y90.288 E7.66337
G1 X122.409 Y90.182 E7.70301
G1 X123.235 Y90.146 E7.74177
G1 X124.075 Y90.182 E7.78114
G1 X124.901 Y90.288 E7.82018
G1 X125.718 Y90.464 E7.85929
G1 X126.519 Y90.710 E7.89855
G1 X127.293 Y91.021 E7.93765
G1 X128.042 Y91.398 E7.97692
G1 X128.752 Y91.836 E8.01601
G1 X129.426 Y92.334 E8.05528
G1 X130.053 Y92.886 E8.09439
G1 X130.632 Y93.490 E8.13363
G1 X131.157 Y94.140 E8.17278
G1 X131.626 Y94.834 E8.21199
G1 X132.039 Y95.576 E8.25178
G1 X132.378 Y96.326 E8.29033
G1 X132.657 Y97.115 E8.32957
G1 X132.867 Y97.923 E8.36869
G1 X133.009 Y98.749 E8.40795
G1 X133.080 Y99.581 E8.44704
G1 X133.080 Y100.419 E8.48631
